X: 2378
T: Baker, The
R: reel
M: 4/4
K: Amajor
(dU|cA)ED CEAc|dFBA GBe(d|cA)ED CEAc|dfBU(g aA)A2|
U(3cBA ED CEAc|dFBA GBe(d|cA)ED CEAc|dfB(g aA)A2|
Ua(Aa)(g f)e(dc)|dfBA GBeg|Va(Aa)g (fe)dc|dfB(g aA)A2|
[1 a(Aa)(g f)e(dc)|dfBA GBe(d|cA)ED CEAc|dfB(g aA)A2:|
[2 U(3aa(A a)(g fe)dV(c|d) fBA GBe(d cA)ED CEAc|dfBg VaUAVA2||

